X:3837
L:1/8
Q:3/8=110
M:6/8
K:F
 a | a2 g g2 f | f2 g g2 f/g/ | a>ba gfg | f2 z z2 a | a2 a ac'a | ac'a ac'a | g2 g gbg | gbg gbg | 
 a>ba abc' | ggg g2 z | abc' c'ba | g2 z g z :: g | g2 a g2 c | ggg g2 z | abc' c'ba | g2 f/g/ | 
 aff Tc'gg | aff Tbgf | ac'c' gbb | ac'c' gbb | a2 g f2 f | f2 g g2 f/g/ | a>ba gfg | 
"^f2 in MS" f4 z :|

